img/logos/json.svg

<?xml version="1.0" encoding="UTF-8" standalone="no" ?>
<svg width="256px" height="256px" viewBox="0 0 256 256" version="1.1" xmlns="http://www.w3.org/2000/svg" xmlns:xlink="http://www.w3.org/1999/xlink" preserveAspectRatio="xMinYMin meet">
    <defs>
        <linearGradient x1="15.7913036%" y1="14.7370493%" x2="91.0087401%" y2="85.2281246%" id="linearGradient-1">
            <stop stop-color="#000000" offset="0%"></stop>
            <stop stop-color="#FFFFFF" offset="100%"></stop>
        </linearGradient>
        <linearGradient x1="82.1356665%" y1="85.2373953%" x2="-3.11315442%" y2="14.7900497%" id="linearGradient-2">
            <stop stop-color="#000000" offset="0%"></stop>
            <stop stop-color="#FFFFFF" offset="100%"></stop>
        </linearGradient>
    </defs>
    <g>
        <path d="M127.78336,190.559312 C184.419648,267.767856 239.846672,169.00968 239.765248,109.620512 C239.668928,39.402832 168.499792,0.158608 127.73696,0.158608 C62.309088,0.158608 0,54.232336 0,128.216032 C0,210.449632 71.424608,255.999984 127.73696,255.999984 C114.993808,254.165184 72.52704,245.065664 71.956288,147.253152 C71.572496,81.098592 93.5364,54.668336 127.64472,66.294672 C128.408608,66.577984 165.266992,81.117888 165.266992,128.61552 C165.266992,175.911392 127.78336,190.559312 127.78336,190.559312 L127.78336,190.559312 Z" fill="url(#linearGradient-1)"></path>
        <path d="M127.717232,66.241296 C90.293152,53.342288 44.4484,84.186592 44.4484,145.967392 C44.4484,246.84416 119.20128,255.999984 128.263056,255.999984 C193.690928,255.999984 256,201.926256 256,127.94256 C256,45.70896 184.575392,0.158608 128.263056,0.158608 C143.860032,-2.001392 212.328448,17.038464 212.328448,110.617488 C212.328448,171.64336 161.203872,204.865424 127.951696,190.670992 C127.187808,190.38768 90.329424,175.847776 90.329424,128.350144 C90.329424,81.054272 127.717232,66.241296 127.717232,66.241296 L127.717232,66.241296 Z" fill="url(#linearGradient-2)"></path>
    </g>
</svg>

<svg width="256" height="256" viewBox="0 0 256 256" xmlns="http://www.w3.org/2000/svg" preserveAspectRatio="xMinYMin meet"><defs><linearGradient x1="15.791%" y1="14.737%" x2="91.009%" y2="85.228%" id="a"><stop offset="0%"/><stop stop-color="#FFF" offset="100%"/></linearGradient><linearGradient x1="82.136%" y1="85.237%" x2="-3.113%" y2="14.79%" id="b"><stop offset="0%"/><stop stop-color="#FFF" offset="100%"/></linearGradient></defs><path d="M127.783 190.56c56.637 77.208 112.064-21.55 111.982-80.94C239.67 39.404 168.5.16 127.737.16 62.31.16 0 54.23 0 128.215 0 210.45 71.425 256 127.737 256c-12.743-1.835-55.21-10.934-55.78-108.747-.385-66.154 21.58-92.585 55.688-80.958.764.283 37.622 14.823 37.622 62.32 0 47.296-37.484 61.944-37.484 61.944z" fill="url(#a)"/><path d="M127.717 66.24c-37.424-12.898-83.27 17.947-83.27 79.727C44.448 246.844 119.202 256 128.264 256 193.69 256 256 201.926 256 127.943 256 45.71 184.575.16 128.263.16 143.86-2 212.328 17.037 212.328 110.616c0 61.026-51.124 94.248-84.376 80.054-.764-.282-37.623-14.822-37.623-62.32 0-47.296 37.387-62.11 37.387-62.11z" fill="url(#b)"/></svg>
